src/topics/icons/middleman.svg

<svg height="256" preserveAspectRatio="xMidYMid" viewBox="0 0 256 256" width="256" xmlns="http://www.w3.org/2000/svg"><rect fill="#f1c761" height="256" rx="22" width="256"/><g fill-opacity=".35" transform="translate(19.561462 32.318937)"><path d="m98.5353355 156.877821v-120.9782861l-29.421289 4.1317209-22.4982325 43.6007974-21.3815283-38.4093555-24.73164118 3.9080398v95.3536215l23.27984048 3.963322v-60.3488106l22.7771961 42.9306046h.5026445l24.0061661-43.0981527v64.8709107z"/><path d="m0 21.6638937v12.5048771l108.863787-18.0322658v-15.96640533z"/><path d="m0 169.551096 108.863787 21.437661v-15.911122l-108.863787-18.088399z"/></g><g fill="#fff" transform="translate(128.425249 32.318937)"><path d="m0 .17009967v15.96640533l108.863787 18.0322658v-12.5048771z"/><path d="m108.361143 144.484359v-95.3536215l-24.7316413-3.9080398-21.3815283 38.4093555-22.499083-43.6007974-29.4204386-4.1317209v120.9782861l27.4668439-4.075588v-64.8709107l24.0061661 43.0981527h.501794l22.7780465-42.9306046v60.3488106z"/><path d="m0 190.988757 108.863787-21.437661v-12.56186l-108.863787 18.088399z"/></g></svg>

<?xml version="1.0" encoding="UTF-8" standalone="no"?>
<svg width="256px" height="256px" viewBox="0 0 256 256" version="1.1" xmlns="http://www.w3.org/2000/svg" xmlns:xlink="http://www.w3.org/1999/xlink" preserveAspectRatio="xMidYMid">
	<g>
		<rect fill="#F1C761" x="0" y="0" width="256" height="256" rx="22"></rect>
		<g transform="translate(19.561462, 32.318937)" fill="#000000" fill-opacity="0.35">
			<path d="M98.5353355,156.877821 L98.5353355,35.8995349 L69.1140465,40.0312558 L46.615814,83.6320532 L25.2342857,45.2226977 L0.502644518,49.1307375 L0.502644518,144.484359 L23.782485,148.447681 L23.782485,88.0988704 L46.5596811,131.029475 L47.0623256,131.029475 L71.0684917,87.9313223 L71.0684917,152.802233 L98.5353355,156.877821"></path>
			<path d="M0,21.6638937 L0,34.1687708 L108.863787,16.136505 L108.863787,0.170099668 L0,21.6638937"></path>
			<path d="M0,169.551096 L108.863787,190.988757 L108.863787,175.077635 L0,156.989236 L0,169.551096"></path>
		</g>
		<g transform="translate(128.425249, 32.318937)" fill="#FFFFFF">
			<path d="M0,0.170099668 L0,16.136505 L108.863787,34.1687708 L108.863787,21.6638937 L0,0.170099668"></path>
			<path d="M108.361143,144.484359 L108.361143,49.1307375 L83.6295017,45.2226977 L62.2479734,83.6320532 L39.7488904,40.0312558 L10.3284518,35.8995349 L10.3284518,156.877821 L37.7952957,152.802233 L37.7952957,87.9313223 L61.8014618,131.029475 L62.3032558,131.029475 L85.0813023,88.0988704 L85.0813023,148.447681 L108.361143,144.484359"></path>
			<path d="M0,190.988757 L108.863787,169.551096 L108.863787,156.989236 L0,175.077635 L0,190.988757"></path>
		</g>
	</g>
</svg>
